public/cloud-icons/azure/application/api-management-location.svg

<?xml version="1.0" encoding="UTF-8" standalone="no"?>
<!-- Generated by Microsoft Visio, SVG Export API Management Location.svg Page-1 -->

<svg
   xmlns:dc="http://purl.org/dc/elements/1.1/"
   xmlns:cc="http://creativecommons.org/ns#"
   xmlns:rdf="http://www.w3.org/1999/02/22-rdf-syntax-ns#"
   xmlns:svg="http://www.w3.org/2000/svg"
   xmlns="http://www.w3.org/2000/svg"
   xmlns:sodipodi="http://sodipodi.sourceforge.net/DTD/sodipodi-0.dtd"
   xmlns:inkscape="http://www.inkscape.org/namespaces/inkscape"
   width="56.583488"
   height="56.787125"
   viewBox="0 0 56.58349 56.787126"
   xml:space="preserve"
   class="st5"
   version="1.1"
   id="svg40"
   sodipodi:docname="API Management Location.svg"
   style="font-size:12px;overflow:visible;color-interpolation-filters:sRGB;fill:none;fill-rule:evenodd;stroke-linecap:square;stroke-miterlimit:3"
   inkscape:version="0.92.5 (2060ec1f9f, 2020-04-08)"><metadata
   id="metadata44"><rdf:RDF><cc:Work
       rdf:about=""><dc:format>image/svg+xml</dc:format><dc:type
         rdf:resource="http://purl.org/dc/dcmitype/StillImage" /></cc:Work></rdf:RDF></metadata><sodipodi:namedview
   pagecolor="#ffffff"
   bordercolor="#666666"
   borderopacity="1"
   objecttolerance="10"
   gridtolerance="10"
   guidetolerance="10"
   inkscape:pageopacity="0"
   inkscape:pageshadow="2"
   inkscape:window-width="640"
   inkscape:window-height="480"
   id="namedview42"
   showgrid="false"
   inkscape:zoom="2.0948358"
   inkscape:cx="28.290489"
   inkscape:cy="22.315237"
   inkscape:window-x="0"
   inkscape:window-y="0"
   inkscape:window-maximized="0"
   inkscape:current-layer="svg40" />
	<style
   type="text/css"
   id="style2">
	<![CDATA[
		.st1 {fill:#9cebff;stroke:none;stroke-linecap:butt;stroke-width:21.8571}
		.st2 {fill:url(#grad0-8);stroke:none;stroke-linecap:butt;stroke-width:21.8571}
		.st3 {fill:#8bc1fd;stroke:none;stroke-linecap:butt;stroke-width:21.8571}
		.st4 {fill:#c8f3ff;stroke:none;stroke-linecap:butt;stroke-width:21.8571}
		.st5 {fill:none;fill-rule:evenodd;font-size:12px;overflow:visible;stroke-linecap:square;stroke-miterlimit:3}
	]]>
	</style>

	<defs
   id="Patterns_And_Gradients">
		<linearGradient
   id="grad0-8"
   x1="-5.8085285"
   y1="63.980085"
   x2="49.616259"
   y2="63.980085"
   gradientTransform="scale(1.0082827,0.99178531)"
   gradientUnits="userSpaceOnUse">
			<stop
   offset="0"
   stop-color="#0078d4"
   stop-opacity="1"
   id="stop4" />
			<stop
   offset="1"
   stop-color="#5ea0ef"
   stop-opacity="1"
   id="stop6" />
		</linearGradient>
	</defs>
	<g
   id="g38"
   transform="translate(-21.85801,-21.857111)">
		<title
   id="title10">Page-1</title>
		<g
   id="group16077-1"
   transform="translate(24.5815,-34.0157)">
			<title
   id="title12">API Management Location.16077</title>
			<g
   id="group16078-2">
				<title
   id="title14">Sheet.16078</title>
				<g
   id="shape16079-3"
   transform="translate(31.516,-44.5718)">
					<title
   id="title16">Sheet.16079</title>
					<path
   d="m 2.55,100.92 -2.55,9.25 9.9,2.49 c 0,0 4.68,-7.66 3.33,-10.01 -0.79,-1.42 -10.68,-1.73 -10.68,-1.73 z"
   class="st1"
   id="path18"
   inkscape:connector-curvature="0"
   style="fill:#9cebff;stroke:none;stroke-width:21.85709953;stroke-linecap:butt" />
				</g>
				<g
   id="shape16080-5"
   transform="translate(3.51651,-6.13474)">
					<title
   id="title21">Sheet.16080</title>
					<path
   d="M 39.17,112.66 A 27.916639,27.468999 0 1 1 4.95,69.25 l 0.28,-0.2 a 27.9119,27.4643 0 0 1 33.94,43.61 z"
   class="st2"
   id="path23"
   inkscape:connector-curvature="0"
   style="fill:url(#grad0-8);stroke:none;stroke-width:21.85709953;stroke-linecap:butt" />
				</g>
				<g
   id="shape16081-9">
					<title
   id="title26">Sheet.16081</title>
					<path
   d="M 53.86,84.82 A 28.0913,27.6408 -180 0 0 51.18,73.08 V 72.55 H 50.93 A 28.3263,27.8721 -180 0 0 29.4,57.27 6.41709,6.31419 -180 0 0 28.09,56.99 l -0.02,0.12 c -0.82,-0.08 -1.65,-0.13 -2.5,-0.13 a 28.3428,27.8884 -180 0 0 -2.89,0.15 V 56.99 A 6.57586,6.47042 -180 0 0 21.15,57.36 28.3201,27.866 -180 0 0 0.2,72.55 H 0.19 v 0.05 a 28.1985,27.7463 -180 0 0 21.83,39.82 c 0.06,0.03 0.12,0.07 0.18,0.1 l 0.03,-0.07 a 26.7819,26.3524 -180 0 0 6.32,0.05 l 0.01,0.02 0.04,-0.03 A 28.3263,27.8721 -180 0 0 53.86,84.82 Z m -26.09,25.05 c -0.24,0.02 -0.48,0.02 -0.72,0.04 v -13.5 h 10.32 c -2.29,6.01 -5.94,11.4 -9.6,13.46 z M 13.38,96.41 h 10.95 v 13.51 c -0.46,-0.02 -0.92,-0.03 -1.37,-0.07 -3.66,-2.08 -7.29,-7.45 -9.58,-13.44 z M 11,84.82 a 41.4327,40.7683 0 0 1 1.15,-9.59 h 12.18 v 18.5 H 12.47 A 32.2958,31.7779 0 0 1 11,84.82 Z M 21.86,59.96 c 0.81,-0.12 1.62,-0.2 2.46,-0.24 V 72.55 H 12.9 C 15.16,65.64 19,61.12 21.86,59.96 Z M 37.85,72.55 H 27.05 V 59.73 c 0.55,0.04 1.11,0.08 1.65,0.14 2.89,1.05 6.85,5.62 9.16,12.68 z m -10.8,21.18 v -18.5 h 11.56 a 41.4327,40.7683 0 0 1 1.15,9.59 32.2896,31.7718 0 0 1 -1.47,8.91 z m 14.33,-18.5 h 7.81 a 25.2972,24.8916 0 0 1 0.26,18.5 h -8.3 a 34.6424,34.0869 -180 0 0 1.33,-8.91 44.0494,43.3431 -180 0 0 -1.1,-9.59 z m 6.48,-2.68 h -7.19 a 32.537,32.0153 -180 0 0 -5.7,-11.1 25.689,25.2771 0 0 1 12.89,11.1 z M 15.63,61.64 A 32.8546,32.3278 -180 0 0 10.09,72.55 H 3.27 A 25.7178,25.3055 0 0 1 15.63,61.64 Z M 1.94,75.23 h 7.44 a 44.0494,43.3431 -180 0 0 -1.11,9.6 34.6424,34.0869 -180 0 0 1.33,8.91 H 1.68 A 25.2972,24.8916 0 0 1 1.94,75.23 Z m 0.95,21.19 h 7.56 a 38.3046,37.6904 -180 0 0 6.94,12.22 25.6642,25.2527 0 0 1 -14.5,-12.23 z m 30.29,12.43 A 37.9808,37.3718 -180 0 0 40.3,96.42 h 7.95 a 25.6828,25.271 0 0 1 -15.07,12.42 z"
   class="st3"
   id="path28"
   inkscape:connector-curvature="0"
   style="fill:#8bc1fd;stroke:none;stroke-width:21.85709953;stroke-linecap:butt" />
				</g>
				<g
   id="shape16082-11"
   transform="translate(9.43355,-18.8057)">
					<title
   id="title31">Sheet.16082</title>
					<path
   d="M 17.49,98.21 C 21,90.05 32.65,79.49 35.12,77.31 A 0.447464,0.440289 -180 0 0 35.03958,76.593769 19.0533,18.7478 -180 0 0 24.77,74.77 0.412409,0.405796 -180 0 0 24.520492,74.901884 C 23.35,76.14 12.39,87.77 9.14,95.43 L 9.08,95.57 9.03,95.63 7.98,98.1 A 0.63511,0.624926 0 0 1 7.155182,98.434782 L 6.74,98.26 1.42,96.08 A 1.08257,1.06522 -180 0 0 0,97.47 l 6.1,14.61 a 1.08876,1.0713 -180 0 0 1.42,0.58 l 14.84,-6.01 a 1.08464,1.06724 -180 0 0 0,-1.97 l -5.32,-2.19 -0.41,-0.17 a 0.63511,0.624926 0 0 1 -0.340238,-0.81159 C 16.7,100.53 17.01,99.34 17.49,98.21 Z"
   class="st4"
   id="path33"
   inkscape:connector-curvature="0"
   style="fill:#c8f3ff;stroke:none;stroke-width:21.85709953;stroke-linecap:butt" />
				</g>
			</g>
		</g>
	</g>
</svg>

<svg xmlns="http://www.w3.org/2000/svg" xml:space="preserve" width="56.583" height="56.787" style="font-size:12px;overflow:visible;color-interpolation-filters:sRGB;fill-rule:evenodd;stroke-linecap:square;stroke-miterlimit:3" viewBox="0 0 56.583 56.787"><defs><linearGradient id="a" x1="-5.809" x2="49.616" y1="63.98" y2="63.98" gradientTransform="scale(1.00828 .99179)" gradientUnits="userSpaceOnUse"><stop offset="0" stop-color="#0078d4"/><stop offset="1" stop-color="#5ea0ef"/></linearGradient></defs><g transform="translate(-21.858 -21.857)"><title>Page-1</title><g transform="translate(24.581 -34.016)"><title>API Management Location.16077</title><title>Sheet.16078</title><g transform="translate(31.516 -44.572)"><title>Sheet.16079</title><path d="M2.55 100.92 0 110.17l9.9 2.49s4.68-7.66 3.33-10.01c-.79-1.42-10.68-1.73-10.68-1.73" style="fill:#9cebff;stroke:none;stroke-width:21.85709953;stroke-linecap:butt"/></g><g transform="translate(3.517 -6.135)"><title>Sheet.16080</title><path d="M39.17 112.66A27.917 27.469 0 1 1 4.95 69.25l.28-.2a27.912 27.464 0 0 1 33.94 43.61" style="fill:url(#a);stroke:none;stroke-width:21.85709953;stroke-linecap:butt"/></g><title>Sheet.16081</title><path d="M53.86 84.82a28.091 27.64-180 0 0-2.68-11.74v-.53h-.25A28.326 27.872-180 0 0 29.4 57.27a6.417 6.314-180 0 0-1.31-.28l-.02.12c-.82-.08-1.65-.13-2.5-.13a28.343 27.888-180 0 0-2.89.15v-.14a6.576 6.47-180 0 0-1.53.37A28.32 27.866-180 0 0 .2 72.55H.19v.05a28.199 27.746-180 0 0 21.83 39.82c.06.03.12.07.18.1l.03-.07a26.782 26.352-180 0 0 6.32.05l.01.02.04-.03a28.326 27.872-180 0 0 25.26-27.67m-26.09 25.05c-.24.02-.48.02-.72.04v-13.5h10.32c-2.29 6.01-5.94 11.4-9.6 13.46M13.38 96.41h10.95v13.51c-.46-.02-.92-.03-1.37-.07-3.66-2.08-7.29-7.45-9.58-13.44M11 84.82a41.433 40.768 0 0 1 1.15-9.59h12.18v18.5H12.47A32.296 31.778 0 0 1 11 84.82m10.86-24.86c.81-.12 1.62-.2 2.46-.24v12.83H12.9c2.26-6.91 6.1-11.43 8.96-12.59m15.99 12.59h-10.8V59.73c.55.04 1.11.08 1.65.14 2.89 1.05 6.85 5.62 9.16 12.68zm-10.8 21.18v-18.5h11.56a41.433 40.768 0 0 1 1.15 9.59 32.29 31.772 0 0 1-1.47 8.91zm14.33-18.5h7.81a25.297 24.892 0 0 1 .26 18.5h-8.3a34.642 34.087-180 0 0 1.33-8.91 44.05 43.343-180 0 0-1.1-9.59m6.48-2.68h-7.19a32.537 32.015-180 0 0-5.7-11.1 25.689 25.277 0 0 1 12.89 11.1M15.63 61.64a32.855 32.328-180 0 0-5.54 10.91H3.27a25.718 25.306 0 0 1 12.36-10.91M1.94 75.23h7.44a44.05 43.343-180 0 0-1.11 9.6 34.642 34.087-180 0 0 1.33 8.91H1.68a25.297 24.892 0 0 1 .26-18.51m.95 21.19h7.56a38.305 37.69-180 0 0 6.94 12.22 25.664 25.253 0 0 1-14.5-12.23zm30.29 12.43a37.98 37.372-180 0 0 7.12-12.43h7.95a25.683 25.271 0 0 1-15.07 12.42z" style="fill:#8bc1fd;stroke:none;stroke-width:21.85709953;stroke-linecap:butt"/><g transform="translate(9.434 -18.806)"><title>Sheet.16082</title><path d="M17.49 98.21c3.51-8.16 15.16-18.72 17.63-20.9a.447.44-180 0 0-.08-.716 19.053 18.748-180 0 0-10.27-1.824.412.406-180 0 0-.25.132C23.35 76.14 12.39 87.77 9.14 95.43l-.06.14-.05.06-1.05 2.47a.635.625 0 0 1-.825.335l-.415-.175-5.32-2.18A1.083 1.065-180 0 0 0 97.47l6.1 14.61a1.089 1.071-180 0 0 1.42.58l14.84-6.01a1.085 1.067-180 0 0 0-1.97l-5.32-2.19-.41-.17a.635.625 0 0 1-.34-.812c.41-.978.72-2.168 1.2-3.298" style="fill:#c8f3ff;stroke:none;stroke-width:21.85709953;stroke-linecap:butt"/></g></g></g></svg>
